X: 125
T: Missa Sancta Dei genitrix / Sanctus
N: Derived from Rue1026d-Missa_Sancta_Dei_genitrix-Sanctus.krn
C: Pierre de la Rue
%%abc-version 2.0
%%abcx-abcm2ps-target-version 5.9.1 (29 Sep 2008)
%%abc-creator hum2abc beta
%%abcx-conversion-date 2019/02/17 08:01:14
%%abc-edited-by Jesse Rodin
%%abc-edited-by Jesse Rodin; Chris Gage 10-25-2012
%%abcx-initial-encoding-date 2012/11/12/
%%humdrum-veritas 2638489066
%%humdrum-veritas-data 1049220604
%%linebreak <none>
%%barnumbers 0
L: 1/4
M: 3/1
Q: 1/2=120
%%staves [1 2 3 4]
V: 1 clef=treble
V: 2 clef=treble-8
V: 3 clef=treble-8
V: 4 clef=bass
K: C
[V:1] z12 | 
[V:2] z12 | 
[V:3] z12 | 
[V:4] E,8F,4 | 
[V:1] z12 | 
[V:2] z4e8 | 
[V:3] B8c4 | 
[V:4] E,8C,4 | 
[V:1] z4B8 | 
[V:2] f4e8 | 
[V:3] B8G4 | 
[V:4] D,4E,8 | 
[V:1] c4B8 | 
[V:2] c4d4e4- | 
[V:3] A4B8 | 
[V:4] A,,4z4E,4- | 
[V:1] G4A4B4- | 
[V:2] e4A2d4e2 | 
[V:3] E4z4z4 | 
[V:4] E,2C,2F,4G,4- | 
[V:1] B4E4A4 | 
[V:2] d2g3fe4d2 | 
[V:3] z12 | 
[V:4] G,2E,2G,2A,2F,4 | 
[V:1] G8A4 | 
[V:2] e4e4A4 | 
[V:3] B6c6 | 
[V:4] E,8F,4 | 
[V:1] D2G3FE4D2 | 
[V:2] G2d4B2c2d2 | 
[V:3] B6G2A4 | 
[V:4] G,8F,4 | 
[V:1] E8D4 | 
[V:2] G8G4 | 
[V:3] B12 | 
[V:4] E,6D,C,B,,4 | 
[V:1] C2c2B2A2c3B/A/ | 
[V:2] A4z4z2c2 | 
[V:3] E12- | 
[V:4] A,,4G,,2A,,3B,,C,D, | 
[V:1] G2A2E4z2E2- | 
[V:2] B2A2c3B/A/G2A2 | 
[V:3] E12- | 
[V:4] E,2A,,3B,,C,3B,,A,,2- | 
[V:1] EFG2CDEFGABc | 
[V:2] E2B2ABcdefg2- | 
[V:3] E12- | 
[V:4] A,,2G,,2A,,4z4 | 
[V:1] B2c4BAG3A | 
[V:2] gfe4dcB2c2 | 
[V:3] E12- | 
[V:4] z12 | 
[V:1] B2c2B2G3ABc | 
[V:2] G3AB2c2B2e2- | 
[V:3] E12- | 
[V:4] z12 | 
[V:1] B2A4^G2A4 | 
[V:2] edc2B4A2c2- | 
[V:3] E12 | 
[V:4] z4z4A,,4- | 
[V:1] z2E4G4FE | 
[V:2] c2BAG3ABcd2- | 
[V:3] z12 | 
[V:4] A,,2C,4B,,A,,G,,3A,, | 
[V:1] D3EFGA4GF | 
[V:2] d2cBA4c4- | 
[V:3] z12 | 
[V:4] B,,C,D,4C,B,,A,,4 | 
[V:1] E4G6FE | 
[V:2] c2BAG4z2G2- | 
[V:3] z12 | 
[V:4] C,6B,,A,,G,,4 | 
[V:1] D4z2D3EFG | 
[V:2] GABcd4z2d2 | 
[V:3] z12 | 
[V:4] z2G,,3A,,B,,C,D,4 | 
[V:1] A4z2A2c4- | 
[V:2] f6edc3d | 
[V:3] z12 | 
[V:4] z2D,2F,6E,D, | 
[V:1] c2BAG3ABcd2- | 
[V:2] efg4fed2f2- | 
[V:3] z12 | 
[V:4] C,3D,E,F,G,4F,E, | 
[V:1] d2cBA2c4BA | 
[V:2] f2edc3de4- | 
[V:3] z12 | 
[V:4] D,2F,4E,D,C,3D, | 
[V:1] G2A2B2c4BA | 
[V:2] e2dcB2e4d2 | 
[V:3] z12 | 
[V:4] E,2F,2G,2A,2F,4 | 
[V:1] G4z2G2A2G2- | 
[V:2] e8e4 | 
[V:3] B8c4 | 
[V:4] E,8z4 | 
[V:1] G2FED2d3cB2- | 
[V:2] g6fed4 | 
[V:3] B12 | 
[V:4] E,4G,8 | 
[V:1] BAG4^FEF4 | 
[V:2] e8d4 | 
[V:3] G4A8 | 
[V:4] E,4C,4D,4 | 
[V:1] G4z4d4 | 
[V:2] z2d3cBAG2D2 | 
[V:3] B12 | 
[V:4] G,,8z2G,,2 | 
[V:1] c2B3AA4^G2 | 
[V:2] A2B2c2A2B4 | 
[V:3] E12- | 
[V:4] A,,2G,,2A,,4E,4 | 
[V:1] A12 ||  
[V:2] A12 ||  
[V:3] E12 ||  
[V:4] A,,12 ||  
[V:1]  [K:C] [K:clef=treble][M:2/1]z8 | 
[V:2]  [K:C] [K:clef=treble-8][M:2/1]z8 | 
[V:3]  [K:C] [K:clef=treble-8][M:2/1]z8 | 
[V:4]  [K:C] [K:clef=bass][M:2/1]E,3F,G,2A,2- | 
[V:1] z8 | 
[V:2] A3Bc2d2- | 
[V:3] z8 | 
[V:4] A,2G,F,E,2D,2 | 
[V:1] D3EF2G2- | 
[V:2] d2cBA2G2 | 
[V:3] z8 | 
[V:4] G,4z2E,2- | 
[V:1] G2FED2C2 | 
[V:2] c4z2A2- | 
[V:3] z8 | 
[V:4] E,2F,2G,2A,2 | 
[V:1] F4z2D2- | 
[V:2] A2B2c2d2 | 
[V:3] z8 | 
[V:4] D,4A,2B,2- | 
[V:1] D2E2F2G2 | 
[V:2] G4d2e2- | 
[V:3] z8 | 
[V:4] B,A,G,2F,2E,2 | 
[V:1] C4G2A2- | 
[V:2] edc2B2A2 | 
[V:3] z8 | 
[V:4] A,4G,2F,2- | 
[V:1] AGF2E2D2 | 
[V:2] d4c2B2- | 
[V:3] z8 | 
[V:4] F,2D,2E,2G,2- | 
[V:1] G4F2E2- | 
[V:2] B2G2A2c2- | 
[V:3] z8 | 
[V:4] G,F,E,2D,2A,2 | 
[V:1] E2C2D2F2- | 
[V:2] cBA2G2d2 | 
[V:3] z8 | 
[V:4] z4z2D,2- | 
[V:1] FED2C2G2 | 
[V:2] z4z2G2- | 
[V:3] z8 | 
[V:4] D,E,F,G,A,2E,2 | 
[V:1] z4z2C2- | 
[V:2] GABcd2A2 | 
[V:3] z8 | 
[V:4] G,4F,4 | 
[V:1] CDEFG2D2 | 
[V:2] c4B4 | 
[V:3] z8 | 
[V:4] E,4z2D,2- | 
[V:1] F4E4 | 
[V:2] A4z2G2- | 
[V:3] z8 | 
[V:4] D,E,F,G,A,2E,2 | 
[V:1] D4z2C2- | 
[V:2] GABcd2A2 | 
[V:3] z8 | 
[V:4] G,3F,D,E,F,G, | 
[V:1] CDEFG2D2 | 
[V:2] c3BGABc | 
[V:3] z8 | 
[V:4] A,3G,/F,/E,2G,2 | 
[V:1] F3ECDEF | 
[V:2] d3c/B/A2c2 | 
[V:3] z8 | 
[V:4] F,2D,2F,2E,2- | 
[V:1] G3F/E/D2F2 | 
[V:2] B2G2B2A2- | 
[V:3] z8 | 
[V:4] E,D,E,F,G,2D,2 | 
[V:1] E2C2E2D2- | 
[V:2] AGABc2G2 | 
[V:3] z8 | 
[V:4] z2A,4B,2 | 
[V:1] DCDEF2C2 | 
[V:2] z2d4e2 | 
[V:3] z8 | 
[V:4] G,2F,E,D,2A,2- | 
[V:1] z2G4A2 | 
[V:2] c2BAG2d2- | 
[V:3] z8 | 
[V:4] A,2G,F,E,2F,2 | 
[V:1] F2EDC2G2- | 
[V:2] d2cBA2B2 | 
[V:3] z8 | 
[V:4] D,3E,F,2G,2 | 
[V:1] G2FED2E2 | 
[V:2] G3AB2c2 | 
[V:3] z8 | 
[V:4] E,2G,4F,E, | 
[V:1] C3DE2F2 | 
[V:2] A2c4BA | 
[V:3] z8 | 
[V:4] F,2A,4G,F, | 
[V:1] D2F4ED | 
[V:2] B2d4cB | 
[V:3] z8 | 
[V:4] G,2F,2D,4 | 
[V:1] E8 ||  
[V:2] c8 ||  
[V:3] z8 ||  
[V:4] A,,8 & A,8 ||  
[V:1]  [K:C] [K:clef=treble][M:3/1]z12 | 
[V:2]  [K:C] [K:clef=treble-8][M:3/1]z12 | 
[V:3]  [K:C] [K:clef=treble-8][M:3/1]z4A4B4 | 
[V:4]  [K:C] [K:clef=bass][M:3/1]E,4F,4E,4 | 
[V:1] z4z4B4 | 
[V:2] e4f4e4 | 
[V:3] A4F4G4 | 
[V:4] C,4D,4E,4 | 
[V:1] c4B4G4 | 
[V:2] c4d4e4 | 
[V:3] A4D4z4 | 
[V:4] A,,4G,,4z2C,2- | 
[V:1] A4B4E3F | 
[V:2] A4z2G4A2 | 
[V:3] z4B4c4- | 
[V:4] C,2D,4E,4A,,2 | 
[V:1] G3AB2c4BA | 
[V:2] G2g3fe4d2 | 
[V:3] c2B4G2A4 | 
[V:4] E,8F,4 | 
[V:1] G8z4 | 
[V:2] e8z2e2- | 
[V:3] B4E4A2_B2 | 
[V:4] E,4z2E,2F,2E,2 | 
[V:1] z4z2E2F2E2 | 
[V:2] e2f2e2c2d2e2 | 
[V:3] A2F2G2A2D2A2- | 
[V:4] C,2D,2E,2A,,2A,3G, | 
[V:1] F2G2A2D2E2F2- | 
[V:2] A2e2c2A2c2d2 | 
[V:3] A2_B2A2F2G2A2 | 
[V:4] F,2E,2F,4E,2D,2 | 
[V:1] FGAFG4F2G2- | 
[V:2] A4B2c2A2e2- | 
[V:3] D2d2e4d2B2 | 
[V:4] F,4E,2C,2D,2E,2- | 
[V:1] G2A4D4E2- | 
[V:2] edcBA2B4c2- | 
[V:3] c4d4G4 | 
[V:4] E,2F,4G,4C,2- | 
[V:1] E2F2G2A4GF | 
[V:2] c2BAG2c4B2 | 
[V:3] z4z4d4 | 
[V:4] C,2D,2E,2F,2D,4 | 
[V:1] A2G3FE4D2 | 
[V:2] c4B2G2A4 | 
[V:3] e4d2B2c2d2 | 
[V:4] C,4G,4F,4 | 
[V:1] E12 ||  
[V:2] B12 ||  
[V:3] G12 ||  
[V:4] E,12 ||  
[V:1]  [K:C] [K:clef=treble][M:3/1]z4z4B4 | 
[V:2]  [K:C] [K:clef=treble-8][M:3/1]B4c2B4G2 | 
[V:3]  [K:C] [K:clef=treble-8][M:3/1]z12 | 
[V:4]  [K:C] [K:clef=bass][M:3/1]z12 | 
[V:1] c2B4G2A2B2 | 
[V:2] A2B2E2e2f2e2- | 
[V:3] z12 | 
[V:4] z12 | 
[V:1] E4B4c4 | 
[V:2] e2c2d2e2ABcd | 
[V:3] z12 | 
[V:4] z12 | 
[V:1] B3GA2B2E3F | 
[V:2] efgef2e4dc | 
[V:3] z12 | 
[V:4] z12 | 
[V:1] G2A4^G2A4 | 
[V:2] B2A2z2e2f3e | 
[V:3] z12 | 
[V:4] z12 | 
[V:1] z4B4c3B | 
[V:2] d2c2d2e2A2f2- | 
[V:3] z12 | 
[V:4] z12 | 
[V:1] A2G2A2B2E2c2- | 
[V:2] f2e2d4c4 | 
[V:3] z12 | 
[V:4] z12 | 
[V:1] c2B2A4G4 | 
[V:2] z2d3efdedcB | 
[V:3] z12 | 
[V:4] z12 | 
[V:1] z2A3BcABAGF | 
[V:2] A4z2A2d4 | 
[V:3] z12 | 
[V:4] z12 | 
[V:1] E8A4 | 
[V:2] c3BA2G2F4 | 
[V:3] z12 | 
[V:4] z12 | 
[V:1] G4z2A2d2d2 | 
[V:2] E2e4dcB4 | 
[V:3] z12 | 
[V:4] z12 | 
[V:1] c3BA2G2F4 | 
[V:2] A3Bcde4d2 | 
[V:3] z12 | 
[V:4] z12 | 
[V:1] E8z4 | 
[V:2] e4z2A2_B2A2- | 
[V:3] z12 | 
[V:4] z12 | 
[V:1] z2A2_B2A4F2 | 
[V:2] A2F2G2A2D2d2 | 
[V:3] z12 | 
[V:4] z12 | 
[V:1] G2A2D4A4 | 
[V:2] e2d4B2c2d2 | 
[V:3] z12 | 
[V:4] z12 | 
[V:1] _B4A4F2G2 | 
[V:2] G2d3ef4e2 | 
[V:3] z12 | 
[V:4] z12 | 
[V:1] A4D3EFEA2- | 
[V:2] d2c2B4A3B | 
[V:3] z12 | 
[V:4] z12 | 
[V:1] ABcAB2A4^G2 | 
[V:2] cdec(3:2:4d4A2c2B4 | 
[V:3] z12 | 
[V:4] z12 | 
[V:1] A12 |]  
[V:2] A12 |]  
[V:3] z12 |]  
[V:4] z12 |]  



